Suru++-Ubuntu/apps/scalable/mpd.svg

<svg width="256" height="256" version="1.1" viewBox="0 0 67.73 67.73" xmlns="http://www.w3.org/2000/svg" xmlns:xlink="http://www.w3.org/1999/xlink">
 <defs>
  <radialGradient id="radialGradient1117-2" cx="265.282" cy="65.436" r="56" gradientTransform="matrix(.17784427 .04765323 -.04765668 .17785713 108.02075 106.19449)" gradientUnits="userSpaceOnUse">
   <stop style="stop-color:#4d4d4d" offset="0"/>
   <stop style="stop-color:#333333" offset=".572"/>
   <stop style="stop-color:#1a1a1a" offset="1"/>
  </radialGradient>
  <linearGradient id="linearGradient1108" x1="296" x2="296" y1="-212" y2="236" gradientUnits="userSpaceOnUse">
   <stop style="stop-color:#ffffff" offset="0"/>
   <stop style="stop-color:#ffffff;stop-opacity:.09803922" offset=".125"/>
   <stop style="stop-color:#000000;stop-opacity:.09803922" offset=".925"/>
   <stop style="stop-color:#000000;stop-opacity:.49803922" offset="1"/>
  </linearGradient>
  <clipPath id="clipPath1082-3-3675">
   <path d="M 361.9375,-212 C 507.2348,-212 528,-191.28677 528,-46.125 V 70.125 C 528,215.28618 507.2348,236 361.9375,236 H 214.0625 C 68.7652,236 48,215.28618 48,70.125 V -46.125 C 48,-191.28677 68.7652,-212 214.0625,-212 Z" style="fill:#8c59d9"/>
  </clipPath>
  <filter id="filter974" x="-.02" y="-.03" width="1.046" height="1.05" style="color-interpolation-filters:sRGB">
   <feGaussianBlur stdDeviation="2.32"/>
  </filter>
 </defs>
 <g transform="translate(0,-229.26666)">
  <path transform="matrix(.26458333 0 0 .26458333 -1.873523e-8 232.67026)" d="m162.53675 5.5680001c72.64865 0 83.03125 10.356615 83.03125 82.937505v58.125005c0 72.58059-10.3826 82.9375-83.03125 82.9375h-73.937496c-72.648654 0-83.031254-10.35691-83.031254-82.9375v-58.125005c0-72.58089 10.3826-82.937505 83.031254-82.937505z" style="filter:url(#filter974);opacity:.2"/>
  <path d="m43.004513 233.61429c19.221622 0 21.968685 2.74019 21.968685 21.94388v15.37891c0 19.20362-2.747063 21.94388-21.968685 21.94388h-19.56263c-19.221622 0-21.968685-2.74026-21.968685-21.94388v-15.37891c0-19.20369 2.7470629-21.94388 21.968685-21.94388z" style="fill:#cacaca"/>
  <path d="m1.4731984 263.24763v7.68945c0 19.20362 2.7470629 21.94388 21.968685 21.94388h19.56263c19.221622 0 21.968685-2.74026 21.968685-21.94388v-7.68945z" style="fill:#ffffff;opacity:.2"/>
  <path transform="matrix(.13229167 0 0 .13229167 -4.8768016 261.66013)" d="M 361.9375,-212 C 507.2348,-212 528,-191.28677 528,-46.125 V 70.125 C 528,215.28618 507.2348,236 361.9375,236 H 214.0625 C 68.7652,236 48,215.28618 48,70.125 V -46.125 C 48,-191.28677 68.7652,-212 214.0625,-212 Z" clip-path="url(#clipPath1082-3-3675)" style="fill:none;opacity:.4;stroke-linecap:round;stroke-linejoin:round;stroke-width:8;stroke:url(#linearGradient1108)"/>
  <g transform="matrix(.49787966 0 0 .49787966 -66.9949 226.46054)" style="enable-background:new">
   <g transform="translate(.94804903 1.3809805)">
    <rect x="176.54" y="28.31" width="71.742" height="51.813" rx="2.391" ry="2.391" style="fill:#00b1ff"/>
    <g transform="matrix(4.9599223,0,0,4.9599223,172.64555,18.390228)" style="fill:#808080">
     <path d="m3.994 1c-1.258 0.015-2.179-0.03-2.931 0.385a1.88 1.88 0 0 0-0.838 0.998c-0.165 0.439-0.225 0.96-0.225 1.617v6c0 0.658 0.06 1.179 0.225 1.617 0.164 0.439 0.461 0.79 0.838 0.998 0.752 0.416 1.673 0.37 2.931 0.385h8.012c1.258-0.014 2.179 0.03 2.932-0.385a1.88 1.88 0 0 0 0.838-0.998c0.164-0.438 0.224-0.96 0.224-1.617v-6c0-0.658-0.06-1.178-0.225-1.617a1.88 1.88 0 0 0-0.837-0.998c-0.753-0.416-1.674-0.37-2.932-0.385h-8.008zm6e-3 1h8c1.259 0.015 2.087 0.06 2.453 0.262 0.184 0.101 0.29 0.213 0.387 0.472 0.097 0.26 0.16 0.674 0.16 1.266v6c0 0.592-0.063 1.006-0.16 1.266-0.098 0.26-0.203 0.371-0.387 0.472-0.366 0.202-1.194 0.247-2.453 0.262h-8c-1.258-0.015-2.09-0.06-2.455-0.262-0.183-0.1-0.287-0.212-0.385-0.472-0.097-0.26-0.16-0.674-0.16-1.266v-6c0-0.592 0.063-1.006 0.16-1.266 0.098-0.26 0.202-0.371 0.385-0.472 0.365-0.202 1.195-0.247 2.455-0.262z" font-weight="400" overflow="visible"/>
     <path d="m6 12h4v1.5c0 1.5 0.5 1.5 1.5 1.5h0.5v1h-8v-1h0.5c1 0 1.5 0 1.5-1.5z" overflow="visible"/>
    </g>
    <rect x="148.68" y="57.54" width="64" height="64" rx="32" ry="32" style="fill:#4d4d4d"/>
    <ellipse cx="180.679" cy="89.539" rx="28" ry="28.001" style="fill:#191622"/>
    <ellipse cx="180.679" cy="89.539" rx="24" ry="24.001" style="fill:#4d4d4d"/>
    <ellipse transform="rotate(-15)" cx="151.313" cy="133.339" rx="22.011" ry="22.012" style="fill:#6b6b6b"/>
    <ellipse cx="180.668" cy="89.633" rx="10.011" ry="10.012"/>
    <ellipse transform="rotate(-15)" cx="151.314" cy="133.339" rx="8.011" ry="8.011" style="fill:url(#radialGradient1117-2)"/>
    <rect x="187.17" y="73.48" width="47.828" height="34.542" rx="1.594" ry="1.594" style="fill:#007dff"/>
    <g transform="matrix(3.3892802,0,0,3.3892802,184.26266,67.434412)" style="fill:#808080">
     <path d="m3.994 1c-1.258 0.015-2.179-0.03-2.931 0.385a1.88 1.88 0 0 0-0.838 0.998c-0.165 0.439-0.225 0.96-0.225 1.617v6c0 0.658 0.06 1.179 0.225 1.617 0.164 0.439 0.461 0.79 0.838 0.998 0.752 0.416 1.673 0.37 2.931 0.385h8.012c1.258-0.014 2.179 0.03 2.932-0.385a1.88 1.88 0 0 0 0.838-0.998c0.164-0.438 0.224-0.96 0.224-1.617v-6c0-0.658-0.06-1.178-0.225-1.617a1.88 1.88 0 0 0-0.837-0.998c-0.753-0.416-1.674-0.37-2.932-0.385h-8.008zm6e-3 1h8c1.259 0.015 2.087 0.06 2.453 0.262 0.184 0.101 0.29 0.213 0.387 0.472 0.097 0.26 0.16 0.674 0.16 1.266v6c0 0.592-0.063 1.006-0.16 1.266-0.098 0.26-0.203 0.371-0.387 0.472-0.366 0.202-1.194 0.247-2.453 0.262h-8c-1.258-0.015-2.09-0.06-2.455-0.262-0.183-0.1-0.287-0.212-0.385-0.472-0.097-0.26-0.16-0.674-0.16-1.266v-6c0-0.592 0.063-1.006 0.16-1.266 0.098-0.26 0.202-0.371 0.385-0.472 0.365-0.202 1.195-0.247 2.455-0.262z" font-weight="400" overflow="visible"/>
     <path d="m6 12h4v1.5c0 1.5 0.5 1.5 1.5 1.5h0.5v1h-8v-1h0.5c1 0 1.5 0 1.5-1.5z" overflow="visible"/>
    </g>
   </g>
  </g>
 </g>
</svg>

<svg xmlns="http://www.w3.org/2000/svg" xmlns:xlink="http://www.w3.org/1999/xlink" width="256" height="256" version="1.1" viewBox="0 0 67.73 67.73">
 <defs>
  <radialGradient id="radialGradient1117-2" cx="265.282" cy="65.436" r="56" fx="265.282" fy="65.436" gradientTransform="matrix(0.17784427,0.04765323,-0.04765668,0.17785713,108.02075,106.19449)" gradientUnits="userSpaceOnUse" xlink:href="#linearGradient1171"/>
  <linearGradient id="linearGradient1171">
   <stop style="stop-color:#4d4d4d" offset="0"/>
   <stop offset=".572" style="stop-color:#333333"/>
   <stop style="stop-color:#1a1a1a" offset="1"/>
  </linearGradient>
  <linearGradient id="linearGradient1108" x1="296" x2="296" y1="-212" y2="236" gradientUnits="userSpaceOnUse" xlink:href="#linearGradient1013"/>
  <linearGradient id="linearGradient1013">
   <stop offset="0" style="stop-color:#ffffff"/>
   <stop style="stop-color:#ffffff;stop-opacity:0.09803922" offset=".125"/>
   <stop style="stop-color:#000000;stop-opacity:0.09803922" offset=".925"/>
   <stop offset="1" style="stop-color:#000000;stop-opacity:0.49803922"/>
  </linearGradient>
  <clipPath id="clipPath1082-3-3675" clipPathUnits="userSpaceOnUse">
   <path d="M 361.9375,-212 C 507.2348,-212 528,-191.28677 528,-46.125 V 70.125 C 528,215.28618 507.2348,236 361.9375,236 H 214.0625 C 68.7652,236 48,215.28618 48,70.125 V -46.125 C 48,-191.28677 68.7652,-212 214.0625,-212 Z" style="fill:#8c59d9"/>
  </clipPath>
  <filter style="color-interpolation-filters:sRGB" id="filter974" width="1.046" height="1.05" x="-.02" y="-.03">
   <feGaussianBlur stdDeviation="2.32"/>
  </filter>
 </defs>
 <g transform="translate(0,-229.26666)">
  <path d="m 162.53675,5.5680001 c 72.64865,0 83.03125,10.3566149 83.03125,82.9375049 v 58.125005 c 0,72.58059 -10.3826,82.9375 -83.03125,82.9375 H 88.599254 C 15.9506,229.56801 5.568,219.2111 5.568,146.63051 V 88.505505 c 0,-72.58089 10.3826,-82.9375049 83.031254,-82.9375049 z" transform="matrix(0.26458333,0,0,0.26458333,-1.873523e-8,232.67026)" style="opacity:0.2;filter:url(#filter974)"/>
  <path style="fill:#cacaca" d="m 43.004513,233.61429 c 19.221622,0 21.968685,2.74019 21.968685,21.94388 v 15.37891 c 0,19.20362 -2.747063,21.94388 -21.968685,21.94388 h -19.56263 c -19.2216217,0 -21.9686846,-2.74026 -21.9686846,-21.94388 v -15.37891 c 0,-19.20369 2.7470629,-21.94388 21.9686846,-21.94388 z"/>
  <path style="opacity:0.2;fill:#ffffff" d="m 1.4731984,263.24763 v 7.68945 c 0,19.20362 2.7470629,21.94388 21.9686846,21.94388 h 19.56263 c 19.221622,0 21.968685,-2.74026 21.968685,-21.94388 v -7.68945 z"/>
  <path d="M 361.9375,-212 C 507.2348,-212 528,-191.28677 528,-46.125 V 70.125 C 528,215.28618 507.2348,236 361.9375,236 H 214.0625 C 68.7652,236 48,215.28618 48,70.125 V -46.125 C 48,-191.28677 68.7652,-212 214.0625,-212 Z" clip-path="url(#clipPath1082-3-3675)" transform="matrix(0.13229167,0,0,0.13229167,-4.8768016,261.66013)" style="opacity:0.4;fill:none;stroke:url(#linearGradient1108);stroke-width:8;stroke-linecap:round;stroke-linejoin:round"/>
  <g transform="matrix(0.49787966,0,0,0.49787966,-66.9949,226.46054)" style="enable-background:new">
   <g transform="translate(0.94804903,1.3809805)">
    <rect style="fill:#00b1ff" width="71.742" height="51.813" x="176.54" y="28.31" rx="2.391" ry="2.391"/>
    <g style="fill:#808080" transform="matrix(4.9599223,0,0,4.9599223,172.64555,18.390228)">
     <path d="M 3.994,1 C 2.736,1.015 1.815,0.97 1.063,1.385 A 1.88,1.88 0 0 0 0.225,2.383 C 0.06,2.822 0,3.343 0,4 v 6 c 0,0.658 0.06,1.179 0.225,1.617 0.164,0.439 0.461,0.79 0.838,0.998 0.752,0.416 1.673,0.37 2.931,0.385 h 8.012 c 1.258,-0.014 2.179,0.03 2.932,-0.385 a 1.88,1.88 0 0 0 0.838,-0.998 C 15.94,11.179 16,10.657 16,10 V 4 C 16,3.342 15.94,2.822 15.775,2.383 A 1.88,1.88 0 0 0 14.938,1.385 C 14.185,0.969 13.264,1.015 12.006,1 H 3.998 Z M 4,2 h 8 c 1.259,0.015 2.087,0.06 2.453,0.262 0.184,0.101 0.29,0.213 0.387,0.472 C 14.937,2.994 15,3.408 15,4 v 6 c 0,0.592 -0.063,1.006 -0.16,1.266 -0.098,0.26 -0.203,0.371 -0.387,0.472 C 14.087,11.94 13.259,11.985 12,12 H 4 C 2.742,11.985 1.91,11.94 1.545,11.738 1.362,11.638 1.258,11.526 1.16,11.266 1.063,11.006 1,10.592 1,10 V 4 C 1,3.408 1.063,2.994 1.16,2.734 1.258,2.474 1.362,2.363 1.545,2.262 1.91,2.06 2.74,2.015 4,2 Z" font-weight="400" overflow="visible"/>
     <path d="m 6,12 h 4 v 1.5 C 10,15 10.5,15 11.5,15 H 12 v 1 H 4 v -1 h 0.5 c 1,0 1.5,0 1.5,-1.5 z" overflow="visible"/>
    </g>
    <rect style="fill:#4d4d4d" width="64" height="64" x="148.68" y="57.54" rx="32" ry="32"/>
    <ellipse cx="180.679" cy="89.539" rx="28" ry="28.001" style="fill:#191622"/>
    <ellipse style="fill:#4d4d4d" cx="180.679" cy="89.539" rx="24" ry="24.001"/>
    <ellipse cx="151.313" cy="133.339" rx="22.011" ry="22.012" transform="rotate(-15)" style="fill:#6b6b6b"/>
    <ellipse cx="180.668" cy="89.633" rx="10.011" ry="10.012"/>
    <ellipse cx="151.314" cy="133.339" rx="8.011" ry="8.011" transform="rotate(-15)" style="fill:url(#radialGradient1117-2)"/>
    <rect width="47.828" height="34.542" x="187.17" y="73.48" rx="1.594" ry="1.594" style="fill:#007dff"/>
    <g transform="matrix(3.3892802,0,0,3.3892802,184.26266,67.434412)" style="fill:#808080">
     <path d="M 3.994,1 C 2.736,1.015 1.815,0.97 1.063,1.385 A 1.88,1.88 0 0 0 0.225,2.383 C 0.06,2.822 0,3.343 0,4 v 6 c 0,0.658 0.06,1.179 0.225,1.617 0.164,0.439 0.461,0.79 0.838,0.998 0.752,0.416 1.673,0.37 2.931,0.385 h 8.012 c 1.258,-0.014 2.179,0.03 2.932,-0.385 a 1.88,1.88 0 0 0 0.838,-0.998 C 15.94,11.179 16,10.657 16,10 V 4 C 16,3.342 15.94,2.822 15.775,2.383 A 1.88,1.88 0 0 0 14.938,1.385 C 14.185,0.969 13.264,1.015 12.006,1 H 3.998 Z M 4,2 h 8 c 1.259,0.015 2.087,0.06 2.453,0.262 0.184,0.101 0.29,0.213 0.387,0.472 C 14.937,2.994 15,3.408 15,4 v 6 c 0,0.592 -0.063,1.006 -0.16,1.266 -0.098,0.26 -0.203,0.371 -0.387,0.472 C 14.087,11.94 13.259,11.985 12,12 H 4 C 2.742,11.985 1.91,11.94 1.545,11.738 1.362,11.638 1.258,11.526 1.16,11.266 1.063,11.006 1,10.592 1,10 V 4 C 1,3.408 1.063,2.994 1.16,2.734 1.258,2.474 1.362,2.363 1.545,2.262 1.91,2.06 2.74,2.015 4,2 Z" font-weight="400" overflow="visible"/>
     <path d="m 6,12 h 4 v 1.5 C 10,15 10.5,15 11.5,15 H 12 v 1 H 4 v -1 h 0.5 c 1,0 1.5,0 1.5,-1.5 z" overflow="visible"/>
    </g>
   </g>
  </g>
 </g>
</svg>
